X:028
%%topmargin 3cm
T:Mrs. Kinloch
C:Arranged by N. F. Tolman
B:The Nelson Music Collection
N:Newton F. Tolman & K. Dep. Gilbert
Z:Transcribed by Ralph Palmer
R:Reel
L:1/8
M:4/4
K:D
f | d2 AG FEDC | DFAF GEEA | {/c}d2 Ad FdAd | Bdce fddf |
d2 AG FEDC | DFAF GEEA | {/c}d2 Ad FdAd | Bdce fdd ||
(d/2e/2) | (fd)cd B2 AG | FAdF GEEG | FAAd B2 Ge | ceAc ddde |
(fd)cd B2 AG | FAdF GEEG | FAAd B2 Ge | ceAc ddd |]

